svgs/thin/phone-flip.svg

<svg xmlns="http://www.w3.org/2000/svg" viewBox="0 0 512 512"><!--! Font Awesome Pro 6.0.0-alpha3 by @fontawesome - https://fontawesome.com License - https://fontawesome.com/license (Commercial License) --><path d="M487.8 24.05l-100.8-23.25c-14.59-3.375-29.79 4.208-35.79 18.11L304.7 127.4c-5.531 12.78-1.807 27.78 8.974 36.47l53.81 44.04c-34 69.25-90.28 125.5-159.5 159.5L163.9 313.7c-8.781-10.75-23.67-14.42-36.45-8.98l-108.5 46.52c-13.91 6.094-21.53 21.14-18.12 35.82l23.25 100.8c3.25 14.25 15.79 24.22 30.45 24.22c252.3 0 457.5-205.2 457.5-457.5C512 39.84 502 27.32 487.8 24.05zM54.5 496c-7.156 0-13.25-4.859-14.88-11.81l-23.25-100.8c-1.656-7.203 2.125-14.61 8.938-17.58l108.5-46.52c6.242-2.66 13.5-.7871 17.75 4.406l52 63.53c133.5-62.32 176.7-168.7 183.8-183.8l-63.53-52.02c-5.25-4.219-7.062-11.52-4.375-17.73l46.5-108.5c2.938-6.781 10.34-10.48 17.47-8.844l100.8 23.25C491.1 41.23 496 47.36 496 54.52C496 297.1 297.9 496 54.5 496z"/></svg>

<svg xmlns="http://www.w3.org/2000/svg" viewBox="0 0 512 512"><!-- Font Awesome Pro 6.0.0-alpha2 by @fontawesome - https://fontawesome.com License - https://fontawesome.com/license (Commercial License) --><path d="M487.782 24.047L386.999 0.797C372.405 -2.578 357.249 5 351.249 18.906L304.749 127.391C299.217 140.172 302.936 155.187 313.717 163.875L367.53 207.922C333.53 277.172 277.249 333.469 208.028 367.453L163.934 313.625C155.153 302.875 140.278 299.203 127.497 304.641L18.932 351.172C5.026 357.266 -2.599 372.344 0.807 387.031L24.057 487.781C27.307 502.031 39.84 512 54.497 512C306.78 512 512.001 306.766 512.001 54.516C512.001 39.844 502.032 27.312 487.782 24.047ZM54.497 496C47.34 496 41.247 491.141 39.622 484.188L16.37 383.438C14.714 376.234 18.495 368.828 25.307 365.859L133.809 319.344C140.051 316.684 147.305 318.557 151.559 323.75L203.559 387.281C337.046 324.963 380.29 218.625 387.342 203.469L323.811 151.453C318.561 147.234 316.749 139.938 319.436 133.719L365.936 25.234C368.874 18.453 376.28 14.75 383.405 16.391L484.188 39.641C491.126 41.234 496.001 47.359 496.001 54.516C496.001 297.953 297.936 496 54.497 496Z"/></svg>
